X: 20432
T: MY AIN FIRESIDE
O: Scottish air.
Q: "Not too fast."
%R: air, jig
B: W. Hamilton "Universal Tune-Book" Vol. 2 Glasgow 1846 p.43 #2
S: http://s3-eu-west-1.amazonaws.com/itma.dl.printmaterial/book_pdfs/hamiltonvol2web.pdf
Z: 2016 John Chambers <jc:trillian.mit.edu>
M: 6/8
L: 1/16
K: D
% - - - - - - - - - - - - - - - - - - - - - - - - -
(d>e) |\
f3ed2 B3cd2 | A3Bd2 e4(de) |\
f3ed2 B3cd2 | A3Bc2 d4 |]\
e>f |\
g3ag2 f2g2f2 | e3f g>f e4 a>g |
f3ed2 B3cd2 | A3Bc2 d4 |]\
d>e |\
f3ed2 B4d2 | A3Bd2 e4(a>g) |\
f3ed2 B3cd2 | A3f (f>e) d4 |]
% - - - - - - - - - - - - - - - - - - - - - - - - -

%%sep 1 1 500
%%sep 1 1 500

